X:1
T:Cupertino, 11.11.11 D
T:Cupertino, 11.11.11 D
T:T. R. Bowden, 1899
T:Public Domain Courtesy of the Cyber Hymnal™
C:T. R. Bowden, 1899
Z:Public Domain
Z:Courtesy of the Cyber Hymnal™
%%score ( 1 2 ) ( 3 4 )
L:1/8
Q:1/4=75
M:6/8
K:C
V:1 treble 
V:2 treble 
V:3 bass 
V:4 bass 
V:1
 [EG] | [EG][CE][EG] [Gc][EG][Ec] | [Fd][Fc][FA] [EG]2 [EG] | [DG][B,D][CE] [DF][CE][DF] | %4
 [FA][EG][DF] [CE]2 [EG] | [EG][CE][EG] [Gc][EG][Ec] | [Fd][Fc][FA] [EG]2 [EG] | %7
 [FA][Fc][FA] [EG][CE][Ec] | [FB][FA][FB] !fermata![Ec]2 [Ec] | [Fd]4 [FB][FG] | [Ec]3 [EG]2 [Ec] | %11
 [Fd]4 [FB][FG] | [Ec]3- [Ec]2 [EG] | [FA]4 [FB][Fc] | [Ec]4 [EG][Ec] | [FB]4 [FA][FB] | %16
 c3- !fermata![Ec]2 |] %17
V:2
 x | x6 | x6 | x6 | x6 | x6 | x6 | x6 | x6 | x6 | x6 | x6 | x6 | x6 | x6 | x6 | EGF x2 |] %17
V:3
 [C,C] | [C,C][C,G,][C,C] [C,E][C,C][C,G,] | [F,A,][F,A,][F,C] [C,C]2 [C,C] | [G,B,]G,G, G,G,G, | %4
 G,G,G, [C,G,]2 [C,C] | [C,C][C,G,][C,C] [C,E][C,C][C,G,] | [F,A,][F,A,][F,C] [C,C]2 [C,C] | %7
 [F,C][F,A,][F,C] [C,C][C,G,][C,G,] | G,G,G, !fermata![C,G,]2 [C,G,] | %9
 ([G,B,][G,B,][G,B,] [G,B,])[G,D][G,B,] | [C,C][C,G,][C,G,] [C,C][C,C][C,G,] | %11
 [G,B,][G,B,][G,B,] G,2 G, | [C,G,][C,G,][C,G,] [C,G,]2 [C,C] | ([F,C][F,C][F,C]) (CB,)[F,A,] | %14
 [C,G,][C,G,][C,G,] [C,C]2 [C,G,] | G,G,G, G,G,G, | [C,G,][C,E,][C,A,] !fermata![C,G,]2 |] %17
V:4
 x | x6 | x6 | x G,G, G,G,G, | G,G,G, x3 | x6 | x6 | x6 | G,G,G, x3 | x6 | x6 | x3 G,2 G, | x6 | %13
 x3 F,2 x | x6 | (G,G,G, G,)G,G, | x5 |] %17

